icons/1_Primary/Rackspace.svg

<svg xmlns="http://www.w3.org/2000/svg" viewBox="0 0 1024 1024">
   <circle cx="512" cy="512" r="512" style="fill:#eb0000"/>
   <path d="m396.1 560.19 9.81-51.6 20.19 51.6h30.62l-20.89-52 38-44.36h-31.06l-36.68 43.88L420.28 433H392l-24.18 127.19zm-228.43-75 4.06-21.37h-25.08L128 561.88h28.48l7.69-40.44c4.53-23.84 18.21-33.39 37.68-30.44l5.56-29.25a39.45 39.45 0 0 0-39.74 23.42zm435.67 15.57c0-4.53-1.07-15.52-11.5-15.52-10.61 0-19.56 12.08-23 30.41-1.19 6.27-4.51 25.08 8.59 25.08 15 0 25.94-21.23 25.94-40zm29.66-2.17c0 23.35-11.21 47.29-31.42 58.06a45.33 45.33 0 0 1-20.7 5.69c-10.12 0-15.79-3.78-19-9.61L554.59 591h-28.48l24.17-127.15h25.08l-2.93 15.43C579.52 468.94 590 462 601.89 462c18.85 0 31.07 14.28 31.07 36.55zm-371.69-4.51c-.33-6.78-3.86-10.43-10.19-10.43-13.4 0-25 23.12-25 39.2 0 10 3.73 16.3 10.2 16.3 10.36 0 19.28-10.83 22.35-26.7 1-5.36 2.81-14.16 2.62-18.36zm26.19 12.36-10.27 53.75H250l3.53-18.5c-3.81 11.53-13.11 20.65-28.7 20.65-18.92 0-27.48-16.8-27.48-33.61 0-19.1 7.49-38 20.06-50.59a54.38 54.38 0 0 1 39.3-16.1c11.56 0 20.1 3.39 25.46 9.88 7.93 9.61 7.28 24 5.3 34.52zm411.34-12.36c-.33-6.78-3.86-10.43-10.19-10.43-13.39 0-25 23.12-25 39.2 0 10 3.73 16.3 10.21 16.3 10.36 0 19.28-10.83 22.35-26.7 1-5.36 2.81-14.16 2.62-18.36zM725 506.44l-10.27 53.75h-27.2l3.53-18.5c-3.81 11.53-13.11 20.65-28.7 20.65-18.93 0-27.48-16.8-27.48-33.61 0-19.1 7.49-38 20.06-50.59a54.38 54.38 0 0 1 39.3-16.1c11.56 0 20.11 3.39 25.46 9.88 7.93 9.61 7.28 24 5.3 34.52zm67.27-44.2c-35.69 0-62.58 26.06-62.58 60.62 0 23.87 15.86 39.28 40.46 39.28 10.52 0 20.75-1.93 27.34-5.13L802 533.2c-8.81 4.37-15.7 6.16-23.82 6.16-9 0-18.65-5.18-18.65-19.63 0-17 12.08-34.7 32.35-34.7a31 31 0 0 1 15.72 3.74l4.4-23.15c-5.1-2.11-12.49-3.38-19.73-3.38zm44.5 40.12c16.71.14 26.11-1.55 30.22-5.62 4.44-4.41 3-13.87-7.9-13.87-12.32 0-20.16 10.1-22.32 19.49zm18.4 37.58c11.91 0 22.22-2.91 33.46-9.44l-4.56 24c-13.57 6.93-29.52 7.68-35.74 7.68-26.5 0-41.64-14.73-41.64-40.46a63.55 63.55 0 0 1 14.91-40.82 53.18 53.18 0 0 1 41-18.86c20 0 33.41 11.64 33.41 28.91 0 8-2.6 14.55-7.72 19.54-9.57 9.33-33.17 14.56-54.65 10.34-1 12.11 8.09 19.11 21.52 19.11zm-500.43-77.7c-35.69 0-62.58 26.06-62.58 60.62 0 23.87 15.86 39.28 40.46 39.28 10.52 0 20.75-1.93 27.34-5.13l4.51-23.81c-8.81 4.37-15.7 6.16-23.82 6.16-9 0-18.65-5.18-18.65-19.63 0-17 12.08-34.7 32.35-34.7a31 31 0 0 1 15.65 3.74l4.41-23.15c-5.1-2.11-12.49-3.38-19.73-3.38zm175.6 66.09c0 8.86-3 16.27-8.78 22-7.74 7.69-20.3 11.88-35.4 11.76-10.84-.18-21.79-2.81-28-6.62l4.13-21.71c6.57 3.73 18 7.5 26.6 7.5 7 0 11.8-3.25 11.8-8.47 0-4.73-3.34-8-11.86-12.21-13.49-6.74-20.24-15.29-20.24-25.37 0-19.82 16.89-33.22 42.22-33.22 13.41 0 22.13 3.16 27 6.26L533.65 490c-3.84-2.88-13.58-6.9-24.22-6.9-7.38 0-12.19 3.09-12.19 8.27 0 3.71 3.68 7 11.47 10.84 10.15 5.07 21.61 12.58 21.61 26.15z" style="fill:#fff"/>
</svg>

<svg width="1024" height="1024" viewBox="0 0 1024 1024" fill="none" xmlns="http://www.w3.org/2000/svg">
<g clip-path="url(#clip0_2_3273)">
<path d="M512 1024C794.77 1024 1024 794.77 1024 512C1024 229.23 794.77 0 512 0C229.23 0 0 229.23 0 512C0 794.77 229.23 1024 512 1024Z" fill="#FF837D"/>
<path d="M396.1 560.19L405.91 508.59L426.1 560.19H456.72L435.83 508.19L473.83 463.83H442.77L406.09 507.71L420.28 433H392L367.82 560.19H396.1ZM167.67 485.19L171.73 463.82H146.65L128 561.88H156.48L164.17 521.44C168.7 497.6 182.38 488.05 201.85 491L207.41 461.75C199.166 460.99 190.893 462.843 183.76 467.047C176.628 471.25 170.999 477.59 167.67 485.17V485.19ZM603.34 500.76C603.34 496.23 602.27 485.24 591.84 485.24C581.23 485.24 572.28 497.32 568.84 515.65C567.65 521.92 564.33 540.73 577.43 540.73C592.43 540.73 603.37 519.5 603.37 500.73L603.34 500.76ZM633 498.59C633 521.94 621.79 545.88 601.58 556.65C595.235 560.177 588.136 562.128 580.88 562.34C570.76 562.34 565.09 558.56 561.88 552.73L554.59 591H526.11L550.28 463.85H575.36L572.43 479.28C579.52 468.94 590 462 601.89 462C620.74 462 632.96 476.28 632.96 498.55L633 498.59ZM261.31 494.08C260.98 487.3 257.45 483.65 251.12 483.65C237.72 483.65 226.12 506.77 226.12 522.85C226.12 532.85 229.85 539.15 236.32 539.15C246.68 539.15 255.6 528.32 258.67 512.45C259.67 507.09 261.48 498.29 261.29 494.09L261.31 494.08ZM287.5 506.44L277.23 560.19H250L253.53 541.69C249.72 553.22 240.42 562.34 224.83 562.34C205.91 562.34 197.35 545.54 197.35 528.73C197.35 509.63 204.84 490.73 217.41 478.14C222.546 472.957 228.672 468.861 235.423 466.095C242.175 463.329 249.414 461.95 256.71 462.04C268.27 462.04 276.81 465.43 282.17 471.92C290.1 481.53 289.45 495.92 287.47 506.44H287.5ZM698.84 494.08C698.51 487.3 694.98 483.65 688.65 483.65C675.26 483.65 663.65 506.77 663.65 522.85C663.65 532.85 667.38 539.15 673.86 539.15C684.22 539.15 693.14 528.32 696.21 512.45C697.21 507.09 699.02 498.29 698.83 494.09L698.84 494.08ZM725 506.44L714.73 560.19H687.53L691.06 541.69C687.25 553.22 677.95 562.34 662.36 562.34C643.43 562.34 634.88 545.54 634.88 528.73C634.88 509.63 642.37 490.73 654.94 478.14C660.076 472.957 666.202 468.861 672.953 466.095C679.705 463.329 686.944 461.95 694.24 462.04C705.8 462.04 714.35 465.43 719.7 471.92C727.63 481.53 726.98 495.92 725 506.44ZM792.27 462.24C756.58 462.24 729.69 488.3 729.69 522.86C729.69 546.73 745.55 562.14 770.15 562.14C780.67 562.14 790.9 560.21 797.49 557.01L802 533.2C793.19 537.57 786.3 539.36 778.18 539.36C769.18 539.36 759.53 534.18 759.53 519.73C759.53 502.73 771.61 485.03 791.88 485.03C797.359 484.865 802.783 486.156 807.6 488.77L812 465.62C806.9 463.51 799.51 462.24 792.27 462.24ZM836.77 502.36C853.48 502.5 862.88 500.81 866.99 496.74C871.43 492.33 869.99 482.87 859.09 482.87C846.77 482.87 838.93 492.97 836.77 502.36ZM855.17 539.94C867.08 539.94 877.39 537.03 888.63 530.5L884.07 554.5C870.5 561.43 854.55 562.18 848.33 562.18C821.83 562.18 806.69 547.45 806.69 521.72C806.709 506.784 811.987 492.332 821.6 480.9C826.633 474.942 832.915 470.164 840 466.905C847.086 463.646 854.801 461.985 862.6 462.04C882.6 462.04 896.01 473.68 896.01 490.95C896.01 498.95 893.41 505.5 888.29 510.49C878.72 519.82 855.12 525.05 833.64 520.83C832.64 532.94 841.73 539.94 855.16 539.94H855.17ZM354.74 462.24C319.05 462.24 292.16 488.3 292.16 522.86C292.16 546.73 308.02 562.14 332.62 562.14C343.14 562.14 353.37 560.21 359.96 557.01L364.47 533.2C355.66 537.57 348.77 539.36 340.65 539.36C331.65 539.36 322 534.18 322 519.73C322 502.73 334.08 485.03 354.35 485.03C359.805 484.877 365.203 486.168 370 488.77L374.41 465.62C369.31 463.51 361.92 462.24 354.68 462.24H354.74ZM530.34 528.33C530.34 537.19 527.34 544.6 521.56 550.33C513.82 558.02 501.26 562.21 486.16 562.09C475.32 561.91 464.37 559.28 458.16 555.47L462.29 533.76C468.86 537.49 480.29 541.26 488.89 541.26C495.89 541.26 500.69 538.01 500.69 532.79C500.69 528.06 497.35 524.79 488.83 520.58C475.34 513.84 468.59 505.29 468.59 495.21C468.59 475.39 485.48 461.99 510.81 461.99C524.22 461.99 532.94 465.15 537.81 468.25L533.65 490C529.81 487.12 520.07 483.1 509.43 483.1C502.05 483.1 497.24 486.19 497.24 491.37C497.24 495.08 500.92 498.37 508.71 502.21C518.86 507.28 530.32 514.79 530.32 528.36L530.34 528.33Z" fill="white"/>
</g>
<defs>
<clipPath id="clip0_2_3273">
<rect width="1024" height="1024" fill="white"/>
</clipPath>
</defs>
</svg>
